polaris-icons/icons/CalendarTimeIcon.svg

<svg xmlns="http://www.w3.org/2000/svg" viewBox="0 0 20 20"><path fill-rule="evenodd" d="M6 2.25C6.41421 2.25 6.75 2.58579 6.75 3V3.52752C7.23694 3.49999 7.81936 3.49999 8.51789 3.5L11 3.5V3C11 2.58579 11.3358 2.25 11.75 2.25C12.1642 2.25 12.5 2.58579 12.5 3V3.60358C13.7959 3.95124 14.75 5.13402 14.75 6.53964C14.75 7.37537 14.0725 8.05286 13.2368 8.05286H4.50359C4.50012 8.34142 4.5 8.67006 4.5 9.05V11.5179C4.5 12.7506 5.49936 13.75 6.73214 13.75C7.14636 13.75 7.48214 14.0858 7.48214 14.5C7.48214 14.9142 7.14636 15.25 6.73214 15.25C4.67094 15.25 3 13.5791 3 11.5179V9.0179C2.99999 8.20506 2.99999 7.54944 3.04336 7.01853C3.08803 6.4719 3.18239 5.99175 3.40873 5.54754C3.76825 4.84193 4.34193 4.26825 5.04754 3.90873C5.11418 3.87477 5.18163 3.84378 5.25 3.81549V3C5.25 2.58579 5.58579 2.25 6 2.25ZM13.2368 6.55286H4.62667C4.65952 6.42307 4.69906 6.31914 4.74524 6.22852C4.96095 5.80516 5.30516 5.46095 5.72852 5.24524C5.92604 5.1446 6.18681 5.07547 6.64068 5.03838C7.10331 5.00058 7.69755 5 8.55 5H11.7104C12.5607 5 13.25 5.68932 13.25 6.53964C13.25 6.54283 13.2495 6.54401 13.2493 6.54456C13.2488 6.5456 13.2479 6.54725 13.2461 6.54899C13.2444 6.55073 13.2427 6.55169 13.2417 6.55213C13.2411 6.55236 13.24 6.55286 13.2368 6.55286Z"/>
<path d="M14.25 12C14.25 11.5858 13.9142 11.25 13.5 11.25C13.0858 11.25 12.75 11.5858 12.75 12V13.2929C12.75 13.6244 12.8817 13.9424 13.1161 14.1768L13.9697 15.0303C14.2626 15.3232 14.7374 15.3232 15.0303 15.0303C15.3232 14.7374 15.3232 14.2626 15.0303 13.9697L14.25 13.1893V12Z"/>
<path fill-rule="evenodd" d="M13.5 18C15.9853 18 18 15.9853 18 13.5C18 11.0147 15.9853 9 13.5 9C11.0147 9 9 11.0147 9 13.5C9 15.9853 11.0147 18 13.5 18ZM13.5 16.5C15.1569 16.5 16.5 15.1569 16.5 13.5C16.5 11.8431 15.1569 10.5 13.5 10.5C11.8431 10.5 10.5 11.8431 10.5 13.5C10.5 15.1569 11.8431 16.5 13.5 16.5Z"/></svg>

<svg xmlns="http://www.w3.org/2000/svg" viewBox="0 0 20 20"><path fill-rule="evenodd" d="M6 2.25c.414 0 .75.336.75.75v.528c.487-.028 1.07-.028 1.768-.028h2.482v-.5c0-.414.336-.75.75-.75s.75.336.75.75v.604c1.296.347 2.25 1.53 2.25 2.936 0 .835-.678 1.513-1.513 1.513h-8.733c-.004.288-.004.617-.004.997v2.468c0 1.233 1 2.232 2.232 2.232.414 0 .75.336.75.75s-.336.75-.75.75c-2.061 0-3.732-1.67-3.732-3.732v-2.5c0-.813 0-1.469.043-2 .045-.546.14-1.026.366-1.47.36-.706.933-1.28 1.639-1.64.066-.033.134-.064.202-.093v-.815c0-.414.336-.75.75-.75Zm7.237 4.303h-8.61c.033-.13.072-.234.118-.324.216-.424.56-.768.984-.984.197-.1.458-.17.912-.207.462-.037 1.057-.038 1.909-.038h3.16c.85 0 1.54.69 1.54 1.54v.005l-.004.004-.004.003h-.005Z"/><path d="M14.25 12c0-.414-.336-.75-.75-.75s-.75.336-.75.75v1.293c0 .331.132.65.366.884l.854.853c.293.293.767.293 1.06 0 .293-.293.293-.767 0-1.06l-.78-.78v-1.19Z"/><path fill-rule="evenodd" d="M13.5 18c2.485 0 4.5-2.015 4.5-4.5s-2.015-4.5-4.5-4.5-4.5 2.015-4.5 4.5 2.015 4.5 4.5 4.5Zm0-1.5c1.657 0 3-1.343 3-3s-1.343-3-3-3-3 1.343-3 3 1.343 3 3 3Z"/></svg>
